report_00007_2020-12-11T15:55:29.892Z/bootup-time/comparison/line/8_vs_9.svg

<svg width="640" height="500" xmlns="http://www.w3.org/2000/svg" xmlns:xlink="http://www.w3.org/1999/xlink"><path fill="#fff" d="M0 0h640v500H0z"/><defs><path id="d" stroke-width=".222" stroke="currentColor" d="M-1-1h2v2h-2z"/><path id="b" stroke-width=".222" stroke="currentColor" d="M0-1.33l-1.33 2h2.66z"/><path id="f" stroke-width=".222" stroke="currentColor" d="M0 1.33L1.265.411.782-1.067l-1.564-.009-.483 1.487z"/><use xlink:href="#b" id="c" stroke="currentColor" transform="rotate(180)"/><use xlink:href="#d" id="e" stroke="currentColor" transform="rotate(45)"/><circle id="a" stroke-width=".222" stroke="currentColor" cx="0" cy="0" r="1"/></defs><g fill="none" color="#000" stroke="currentColor"><path stroke="#000" d="M45.6 365.5h9m560.4 0h-9"/><text transform="translate(37.3 369.4)" stroke="none" fill="#000" font-family="Arial" font-size="12" text-anchor="end"><tspan>25</tspan></text></g><g fill="none" color="#000" stroke="currentColor"><path stroke="#000" d="M45.6 300.2h9m560.4 0h-9"/><text transform="translate(37.3 304.1)" stroke="none" fill="#000" font-family="Arial" font-size="12" text-anchor="end"><tspan>30</tspan></text></g><g fill="none" color="#000" stroke="currentColor"><path stroke="#000" d="M45.6 234.9h9m560.4 0h-9"/><text transform="translate(37.3 238.8)" stroke="none" fill="#000" font-family="Arial" font-size="12" text-anchor="end"><tspan>35</tspan></text></g><g fill="none" color="#000" stroke="currentColor"><path stroke="#000" d="M45.6 169.6h9m560.4 0h-9"/><text transform="translate(37.3 173.5)" stroke="none" fill="#000" font-family="Arial" font-size="12" text-anchor="end"><tspan>40</tspan></text></g><g fill="none" color="#000" stroke="currentColor"><path stroke="#000" d="M45.6 104.3h9m560.4 0h-9"/><text transform="translate(37.3 108.2)" stroke="none" fill="#000" font-family="Arial" font-size="12" text-anchor="end"><tspan>45</tspan></text></g><g fill="none" color="#000" stroke="currentColor"><path stroke="#000" d="M45.6 39h9M615 39h-9"/><text transform="translate(37.3 42.9)" stroke="none" fill="#000" font-family="Arial" font-size="12" text-anchor="end"><tspan>50</tspan></text></g><g fill="none" color="#000" stroke="currentColor"><path stroke="#000" d="M45.6 428v-9m0-400.9v9"/><text transform="translate(45.6 449.9)" stroke="none" fill="#000" font-family="Arial" font-size="12" text-anchor="middle"><tspan>0</tspan></text></g><g fill="none" color="#000" stroke="currentColor"><path stroke="#000" d="M103.1 428v-9m0-400.9v9"/><text transform="translate(103.1 449.9)" stroke="none" fill="#000" font-family="Arial" font-size="12" text-anchor="middle"><tspan>10</tspan></text></g><g fill="none" color="#000" stroke="currentColor"><path stroke="#000" d="M160.6 428v-9m0-400.9v9"/><text transform="translate(160.6 449.9)" stroke="none" fill="#000" font-family="Arial" font-size="12" text-anchor="middle"><tspan>20</tspan></text></g><g fill="none" color="#000" stroke="currentColor"><path stroke="#000" d="M218.1 428v-9m0-400.9v9"/><text transform="translate(218.1 449.9)" stroke="none" fill="#000" font-family="Arial" font-size="12" text-anchor="middle"><tspan>30</tspan></text></g><g fill="none" color="#000" stroke="currentColor"><path stroke="#000" d="M275.7 428v-9m0-400.9v9"/><text transform="translate(275.7 449.9)" stroke="none" fill="#000" font-family="Arial" font-size="12" text-anchor="middle"><tspan>40</tspan></text></g><g fill="none" color="#000" stroke="currentColor"><path stroke="#000" d="M333.2 428v-9m0-400.9v9"/><text transform="translate(333.2 449.9)" stroke="none" fill="#000" font-family="Arial" font-size="12" text-anchor="middle"><tspan>50</tspan></text></g><g fill="none" color="#000" stroke="currentColor"><path stroke="#000" d="M390.7 428v-9m0-400.9v9"/><text transform="translate(390.7 449.9)" stroke="none" fill="#000" font-family="Arial" font-size="12" text-anchor="middle"><tspan>60</tspan></text></g><g fill="none" color="#000" stroke="currentColor"><path stroke="#000" d="M448.2 428v-9m0-400.9v9"/><text transform="translate(448.2 449.9)" stroke="none" fill="#000" font-family="Arial" font-size="12" text-anchor="middle"><tspan>70</tspan></text></g><g fill="none" color="#000" stroke="currentColor"><path stroke="#000" d="M505.7 428v-9m0-400.9v9"/><text transform="translate(505.7 449.9)" stroke="none" fill="#000" font-family="Arial" font-size="12" text-anchor="middle"><tspan>80</tspan></text></g><g fill="none" color="#000" stroke="currentColor"><path stroke="#000" d="M563.2 428v-9m0-400.9v9"/><text transform="translate(563.2 449.9)" stroke="none" fill="#000" font-family="Arial" font-size="12" text-anchor="middle"><tspan>90</tspan></text></g><path stroke="#000" d="M45.6 18.1V428H615V18.1H45.6z" fill="none" color="#000"/><text transform="translate(271.5 467.9)" stroke="none" fill="#000" font-family="Arial" font-size="12" text-anchor="end" color="#000"><tspan>pages+cached+noexternal+noimg</tspan></text><path stroke="#9400D3" d="M279.8 464H322M45.6 101.4l5.8 27.7 5.7-20.4 5.8 1.3 5.7 15.7 5.8-14.5 5.7 16.9 5.8 3.5 5.7-.8 5.8-9.7 5.7-6.2 5.8 4.4 5.7 2.4 5.8-27 5.7-1.2 5.8-15 5.7 23.6 5.8 7.4 5.7 19.1 5.8.5 5.7-12 5.8 27.7 5.7-48.5 5.8-3.6 5.7 17.2 5.8-6.8 5.7 4.9 5.8 7.1 5.7 12.1 5.8-17.1 5.7 12.2 5.8-23.2h5.7l5.8 17.1 5.8 5.4 5.7 18.5 5.8-18.4 5.7-3.9 5.8-8 5.7 2.5 5.8 15.5 5.7-26.5 5.8 11.6 5.7 14.4 5.8-28.4 5.7 13.7 5.8-4.7 5.7 11.7 5.8 9.2 5.7-6.5 5.8-18.6 5.7 9.2 5.8 11 5.7-12.6 5.8 61.6 5.7-85.3 5.8 25.1 5.7 14.2 5.8-11.7 5.7 7.9 5.8 1.5 5.7-32.7 5.8 39.6 5.7-16.5 5.8 18.2 5.7-40.7 5.8 43.9 5.8-6.8 5.7-9.4 5.8-8.3 5.7-8.8L454 88l5.7 23 5.8 5.4 5.7-13.6 5.8 18.6 5.7-61.1 5.8 76.3 5.7-5.3 5.8-15.7 5.7 4.5 5.8-10.9 5.7 7.7 5.8-35.3 5.7 23 5.8 14.8 5.7-20.3L546 120l5.7 12.8 5.8-17.4 5.7-20.3 5.8 15 5.7 4.8 5.8-6.8 5.7 9.9 5.8-18.6 5.7 28.8 5.8-42 5.7 35.5 5.8.8" fill="none" color="#000"/><text transform="translate(271.5 485.9)" stroke="none" fill="#000" font-family="Arial" font-size="12" text-anchor="end" color="#000"><tspan>pages+cached+noexternal+nocss</tspan></text><path stroke="#009E73" d="M279.8 482H322M45.6 379l5.8 2.9 5.7 4.9 5.8-4.3 5.7 15.8 5.8-26.3 5.7 2.6 5.8 19.2 5.7-16.9 5.8 6.4 5.7-19.8 5.8 18.6 5.7-8 5.8 16.8 5.7-22.5 5.8 22.9 5.7-49.7 5.8 35.2 5.7 8.1 5.8-18.3 5.7 31.3 5.8-11.6 5.7-9.9 5.8 6.5 5.7-26.8 5.8 28.2 5.7-8.2 5.8 15.4 5.7-22.9 5.8 8.4 5.7 16.3 5.8-12.1 5.7 1.5 5.8 5.2 5.8-5.1 5.7-12.9 5.8 12.8 5.7-4.7 5.8-4.1 5.7 3.6 5.8-10.6 5.7 21.3 5.8-11.3 5.7 10.7 5.8-18 5.7 5.4 5.8 4 5.7-10.8 5.8 8.6 5.7 2.8 5.8 40.5 5.7-35.3 5.8 3.8 5.7-21.9 5.8 1.4 5.7 11.6 5.8 2.6 5.7 12.8 5.8-10.4 5.7-10 5.8 21.9 5.7-7.1 5.8-9.8 5.7 2.7 5.8 9.3 5.7-19.6 5.8-2.7 5.8 15.7 5.7-22.6 5.8 28.5 5.7-7.6L454 368l5.7-7.5 5.8 34 5.7-28.7 5.8 12.7 5.7 2 5.8 2 5.7 9.8 5.8-19.6 5.7 20.8 5.8 26.3 5.7-38.5 5.8 1.1 5.7-24.3 5.8 30.5 5.7-4.7 5.8-3.3 5.7 3.1L557.5 26l5.7 352.3 5.8 1.8 5.7-20.8 5.8 25.1 5.7-7.5 5.8-4.1 5.7 9.5 5.8-15.4 5.7 9.6 5.8-8.5" fill="none" color="#000"/><text transform="translate(571 467.9)" stroke="none" fill="#000" font-family="Arial" font-size="12" text-anchor="end" color="#000"><tspan>score p10=1282</tspan></text><path stroke="#56B4E9" d="M579.3 464h42.2" fill="none" color="#000"/><g><text transform="translate(571 485.9)" stroke="none" fill="#000" font-family="Arial" font-size="12" text-anchor="end" color="#000"><tspan>score median=3500</tspan></text><path stroke="#E69F00" d="M579.3 482h42.2" fill="none" color="#000"/></g><g fill="none" color="#000" stroke="currentColor"><path stroke="#000" d="M45.6 18.1V428H615V18.1H45.6z"/></g></svg>

<?xml version="1.0" encoding="utf-8"  standalone="no"?>
<svg 
 width="640" height="500"
 viewBox="0 0 640 500"
 xmlns="http://www.w3.org/2000/svg"
 xmlns:xlink="http://www.w3.org/1999/xlink"
>

<title>Gnuplot</title>
<desc>Produced by GNUPLOT 5.4 patchlevel 0 </desc>

<g id="gnuplot_canvas">

<rect x="0" y="0" width="640" height="500" fill="#ffffff"/>
<defs>

	<circle id='gpDot' r='0.5' stroke-width='0.5' stroke='currentColor'/>
	<path id='gpPt0' stroke-width='0.222' stroke='currentColor' d='M-1,0 h2 M0,-1 v2'/>
	<path id='gpPt1' stroke-width='0.222' stroke='currentColor' d='M-1,-1 L1,1 M1,-1 L-1,1'/>
	<path id='gpPt2' stroke-width='0.222' stroke='currentColor' d='M-1,0 L1,0 M0,-1 L0,1 M-1,-1 L1,1 M-1,1 L1,-1'/>
	<rect id='gpPt3' stroke-width='0.222' stroke='currentColor' x='-1' y='-1' width='2' height='2'/>
	<rect id='gpPt4' stroke-width='0.222' stroke='currentColor' fill='currentColor' x='-1' y='-1' width='2' height='2'/>
	<circle id='gpPt5' stroke-width='0.222' stroke='currentColor' cx='0' cy='0' r='1'/>
	<use xlink:href='#gpPt5' id='gpPt6' fill='currentColor' stroke='none'/>
	<path id='gpPt7' stroke-width='0.222' stroke='currentColor' d='M0,-1.33 L-1.33,0.67 L1.33,0.67 z'/>
	<use xlink:href='#gpPt7' id='gpPt8' fill='currentColor' stroke='none'/>
	<use xlink:href='#gpPt7' id='gpPt9' stroke='currentColor' transform='rotate(180)'/>
	<use xlink:href='#gpPt9' id='gpPt10' fill='currentColor' stroke='none'/>
	<use xlink:href='#gpPt3' id='gpPt11' stroke='currentColor' transform='rotate(45)'/>
	<use xlink:href='#gpPt11' id='gpPt12' fill='currentColor' stroke='none'/>
	<path id='gpPt13' stroke-width='0.222' stroke='currentColor' d='M0,1.330 L1.265,0.411 L0.782,-1.067 L-0.782,-1.076 L-1.265,0.411 z'/>
	<use xlink:href='#gpPt13' id='gpPt14' fill='currentColor' stroke='none'/>
	<filter id='textbox' filterUnits='objectBoundingBox' x='0' y='0' height='1' width='1'>
	  <feFlood flood-color='#FFFFFF' flood-opacity='1' result='bgnd'/>
	  <feComposite in='SourceGraphic' in2='bgnd' operator='atop'/>
	</filter>
	<filter id='greybox' filterUnits='objectBoundingBox' x='0' y='0' height='1' width='1'>
	  <feFlood flood-color='lightgrey' flood-opacity='1' result='grey'/>
	  <feComposite in='SourceGraphic' in2='grey' operator='atop'/>
	</filter>
</defs>
<g fill="none" color="#FFFFFF" stroke="black" stroke-width="1.00" stroke-linecap="butt" stroke-linejoin="miter">
</g>
<g fill="none" color="black" stroke="currentColor" stroke-width="1.00" stroke-linecap="butt" stroke-linejoin="miter">
	<path stroke='black'  d='M45.6,365.5 L54.6,365.5 M615.0,365.5 L606.0,365.5  '/>	<g transform="translate(37.3,369.4)" stroke="none" fill="black" font-family="Arial" font-size="12.00"  text-anchor="end">
		<text><tspan font-family="Arial" > 25</tspan></text>
	</g>
</g>
<g fill="none" color="black" stroke="currentColor" stroke-width="1.00" stroke-linecap="butt" stroke-linejoin="miter">
	<path stroke='black'  d='M45.6,300.2 L54.6,300.2 M615.0,300.2 L606.0,300.2  '/>	<g transform="translate(37.3,304.1)" stroke="none" fill="black" font-family="Arial" font-size="12.00"  text-anchor="end">
		<text><tspan font-family="Arial" > 30</tspan></text>
	</g>
</g>
<g fill="none" color="black" stroke="currentColor" stroke-width="1.00" stroke-linecap="butt" stroke-linejoin="miter">
	<path stroke='black'  d='M45.6,234.9 L54.6,234.9 M615.0,234.9 L606.0,234.9  '/>	<g transform="translate(37.3,238.8)" stroke="none" fill="black" font-family="Arial" font-size="12.00"  text-anchor="end">
		<text><tspan font-family="Arial" > 35</tspan></text>
	</g>
</g>
<g fill="none" color="black" stroke="currentColor" stroke-width="1.00" stroke-linecap="butt" stroke-linejoin="miter">
	<path stroke='black'  d='M45.6,169.6 L54.6,169.6 M615.0,169.6 L606.0,169.6  '/>	<g transform="translate(37.3,173.5)" stroke="none" fill="black" font-family="Arial" font-size="12.00"  text-anchor="end">
		<text><tspan font-family="Arial" > 40</tspan></text>
	</g>
</g>
<g fill="none" color="black" stroke="currentColor" stroke-width="1.00" stroke-linecap="butt" stroke-linejoin="miter">
	<path stroke='black'  d='M45.6,104.3 L54.6,104.3 M615.0,104.3 L606.0,104.3  '/>	<g transform="translate(37.3,108.2)" stroke="none" fill="black" font-family="Arial" font-size="12.00"  text-anchor="end">
		<text><tspan font-family="Arial" > 45</tspan></text>
	</g>
</g>
<g fill="none" color="black" stroke="currentColor" stroke-width="1.00" stroke-linecap="butt" stroke-linejoin="miter">
	<path stroke='black'  d='M45.6,39.0 L54.6,39.0 M615.0,39.0 L606.0,39.0  '/>	<g transform="translate(37.3,42.9)" stroke="none" fill="black" font-family="Arial" font-size="12.00"  text-anchor="end">
		<text><tspan font-family="Arial" > 50</tspan></text>
	</g>
</g>
<g fill="none" color="black" stroke="currentColor" stroke-width="1.00" stroke-linecap="butt" stroke-linejoin="miter">
	<path stroke='black'  d='M45.6,428.0 L45.6,419.0 M45.6,18.1 L45.6,27.1  '/>	<g transform="translate(45.6,449.9)" stroke="none" fill="black" font-family="Arial" font-size="12.00"  text-anchor="middle">
		<text><tspan font-family="Arial" > 0</tspan></text>
	</g>
</g>
<g fill="none" color="black" stroke="currentColor" stroke-width="1.00" stroke-linecap="butt" stroke-linejoin="miter">
	<path stroke='black'  d='M103.1,428.0 L103.1,419.0 M103.1,18.1 L103.1,27.1  '/>	<g transform="translate(103.1,449.9)" stroke="none" fill="black" font-family="Arial" font-size="12.00"  text-anchor="middle">
		<text><tspan font-family="Arial" > 10</tspan></text>
	</g>
</g>
<g fill="none" color="black" stroke="currentColor" stroke-width="1.00" stroke-linecap="butt" stroke-linejoin="miter">
	<path stroke='black'  d='M160.6,428.0 L160.6,419.0 M160.6,18.1 L160.6,27.1  '/>	<g transform="translate(160.6,449.9)" stroke="none" fill="black" font-family="Arial" font-size="12.00"  text-anchor="middle">
		<text><tspan font-family="Arial" > 20</tspan></text>
	</g>
</g>
<g fill="none" color="black" stroke="currentColor" stroke-width="1.00" stroke-linecap="butt" stroke-linejoin="miter">
	<path stroke='black'  d='M218.1,428.0 L218.1,419.0 M218.1,18.1 L218.1,27.1  '/>	<g transform="translate(218.1,449.9)" stroke="none" fill="black" font-family="Arial" font-size="12.00"  text-anchor="middle">
		<text><tspan font-family="Arial" > 30</tspan></text>
	</g>
</g>
<g fill="none" color="black" stroke="currentColor" stroke-width="1.00" stroke-linecap="butt" stroke-linejoin="miter">
	<path stroke='black'  d='M275.7,428.0 L275.7,419.0 M275.7,18.1 L275.7,27.1  '/>	<g transform="translate(275.7,449.9)" stroke="none" fill="black" font-family="Arial" font-size="12.00"  text-anchor="middle">
		<text><tspan font-family="Arial" > 40</tspan></text>
	</g>
</g>
<g fill="none" color="black" stroke="currentColor" stroke-width="1.00" stroke-linecap="butt" stroke-linejoin="miter">
	<path stroke='black'  d='M333.2,428.0 L333.2,419.0 M333.2,18.1 L333.2,27.1  '/>	<g transform="translate(333.2,449.9)" stroke="none" fill="black" font-family="Arial" font-size="12.00"  text-anchor="middle">
		<text><tspan font-family="Arial" > 50</tspan></text>
	</g>
</g>
<g fill="none" color="black" stroke="currentColor" stroke-width="1.00" stroke-linecap="butt" stroke-linejoin="miter">
	<path stroke='black'  d='M390.7,428.0 L390.7,419.0 M390.7,18.1 L390.7,27.1  '/>	<g transform="translate(390.7,449.9)" stroke="none" fill="black" font-family="Arial" font-size="12.00"  text-anchor="middle">
		<text><tspan font-family="Arial" > 60</tspan></text>
	</g>
</g>
<g fill="none" color="black" stroke="currentColor" stroke-width="1.00" stroke-linecap="butt" stroke-linejoin="miter">
	<path stroke='black'  d='M448.2,428.0 L448.2,419.0 M448.2,18.1 L448.2,27.1  '/>	<g transform="translate(448.2,449.9)" stroke="none" fill="black" font-family="Arial" font-size="12.00"  text-anchor="middle">
		<text><tspan font-family="Arial" > 70</tspan></text>
	</g>
</g>
<g fill="none" color="black" stroke="currentColor" stroke-width="1.00" stroke-linecap="butt" stroke-linejoin="miter">
	<path stroke='black'  d='M505.7,428.0 L505.7,419.0 M505.7,18.1 L505.7,27.1  '/>	<g transform="translate(505.7,449.9)" stroke="none" fill="black" font-family="Arial" font-size="12.00"  text-anchor="middle">
		<text><tspan font-family="Arial" > 80</tspan></text>
	</g>
</g>
<g fill="none" color="black" stroke="currentColor" stroke-width="1.00" stroke-linecap="butt" stroke-linejoin="miter">
	<path stroke='black'  d='M563.2,428.0 L563.2,419.0 M563.2,18.1 L563.2,27.1  '/>	<g transform="translate(563.2,449.9)" stroke="none" fill="black" font-family="Arial" font-size="12.00"  text-anchor="middle">
		<text><tspan font-family="Arial" > 90</tspan></text>
	</g>
</g>
<g fill="none" color="black" stroke="currentColor" stroke-width="1.00" stroke-linecap="butt" stroke-linejoin="miter">
</g>
<g fill="none" color="black" stroke="currentColor" stroke-width="1.00" stroke-linecap="butt" stroke-linejoin="miter">
	<path stroke='black'  d='M45.6,18.1 L45.6,428.0 L615.0,428.0 L615.0,18.1 L45.6,18.1 Z  '/></g>
<g fill="none" color="black" stroke="currentColor" stroke-width="1.00" stroke-linecap="butt" stroke-linejoin="miter">
</g>
	<g id="gnuplot_plot_1" ><title>pages+cached+noexternal+noimg</title>
<g fill="none" color="black" stroke="currentColor" stroke-width="1.00" stroke-linecap="butt" stroke-linejoin="miter">
	<g transform="translate(271.5,467.9)" stroke="none" fill="black" font-family="Arial" font-size="12.00"  text-anchor="end">
		<text><tspan font-family="Arial" >pages+cached+noexternal+noimg</tspan></text>
	</g>
</g>
<g fill="none" color="black" stroke="currentColor" stroke-width="1.00" stroke-linecap="butt" stroke-linejoin="miter">
	<path stroke='rgb(148,   0, 211)'  d='M279.8,464.0 L322.0,464.0 M45.6,101.4 L51.4,129.1 L57.1,108.7 L62.9,110.0 L68.6,125.7 L74.4,111.2
		L80.1,128.1 L85.9,131.6 L91.6,130.8 L97.4,121.1 L103.1,114.9 L108.9,119.3 L114.6,121.7 L120.4,94.7
		L126.1,93.5 L131.9,78.5 L137.6,102.1 L143.4,109.5 L149.1,128.6 L154.9,129.1 L160.6,117.1 L166.4,144.8
		L172.1,96.3 L177.9,92.7 L183.6,109.9 L189.4,103.1 L195.1,108.0 L200.9,115.1 L206.6,127.2 L212.4,110.1
		L218.1,122.3 L223.9,99.1 L229.6,99.1 L235.4,116.2 L241.2,121.6 L246.9,140.1 L252.7,121.7 L258.4,117.8
		L264.2,109.8 L269.9,112.3 L275.7,127.8 L281.4,101.3 L287.2,112.9 L292.9,127.3 L298.7,98.9 L304.4,112.6
		L310.2,107.9 L315.9,119.6 L321.7,128.8 L327.4,122.3 L333.2,103.7 L338.9,112.9 L344.7,123.9 L350.4,111.3
		L356.2,172.9 L361.9,87.6 L367.7,112.7 L373.4,126.9 L379.2,115.2 L384.9,123.1 L390.7,124.6 L396.4,91.9
		L402.2,131.5 L407.9,115.0 L413.7,133.2 L419.4,92.5 L425.2,136.4 L431.0,129.6 L436.7,120.2 L442.5,111.9
		L448.2,103.1 L454.0,88.0 L459.7,111.0 L465.5,116.4 L471.2,102.8 L477.0,121.4 L482.7,60.3 L488.5,136.6
		L494.2,131.3 L500.0,115.6 L505.7,120.1 L511.5,109.2 L517.2,116.9 L523.0,81.6 L528.7,104.6 L534.5,119.4
		L540.2,99.1 L546.0,120.0 L551.7,132.8 L557.5,115.4 L563.2,95.1 L569.0,110.1 L574.7,114.9 L580.5,108.1
		L586.2,118.0 L592.0,99.4 L597.7,128.2 L603.5,86.2 L609.2,121.7 L615.0,122.5  '/></g>
	</g>
	<g id="gnuplot_plot_2" ><title>pages+cached+noexternal+nocss</title>
<g fill="none" color="black" stroke="currentColor" stroke-width="1.00" stroke-linecap="butt" stroke-linejoin="miter">
	<g transform="translate(271.5,485.9)" stroke="none" fill="black" font-family="Arial" font-size="12.00"  text-anchor="end">
		<text><tspan font-family="Arial" >pages+cached+noexternal+nocss</tspan></text>
	</g>
</g>
<g fill="none" color="black" stroke="currentColor" stroke-width="1.00" stroke-linecap="butt" stroke-linejoin="miter">
	<path stroke='rgb(  0, 158, 115)'  d='M279.8,482.0 L322.0,482.0 M45.6,379.0 L51.4,381.9 L57.1,386.8 L62.9,382.5 L68.6,398.3 L74.4,372.0
		L80.1,374.6 L85.9,393.8 L91.6,376.9 L97.4,383.3 L103.1,363.5 L108.9,382.1 L114.6,374.1 L120.4,390.9
		L126.1,368.4 L131.9,391.3 L137.6,341.6 L143.4,376.8 L149.1,384.9 L154.9,366.6 L160.6,397.9 L166.4,386.3
		L172.1,376.4 L177.9,382.9 L183.6,356.1 L189.4,384.3 L195.1,376.1 L200.9,391.5 L206.6,368.6 L212.4,377.0
		L218.1,393.3 L223.9,381.2 L229.6,382.7 L235.4,387.9 L241.2,382.8 L246.9,369.9 L252.7,382.7 L258.4,378.0
		L264.2,373.9 L269.9,377.5 L275.7,366.9 L281.4,388.2 L287.2,376.9 L292.9,387.6 L298.7,369.6 L304.4,375.0
		L310.2,379.0 L315.9,368.2 L321.7,376.8 L327.4,379.6 L333.2,420.1 L338.9,384.8 L344.7,388.6 L350.4,366.7
		L356.2,368.1 L361.9,379.7 L367.7,382.3 L373.4,395.1 L379.2,384.7 L384.9,374.7 L390.7,396.6 L396.4,389.5
		L402.2,379.7 L407.9,382.4 L413.7,391.7 L419.4,372.1 L425.2,369.4 L431.0,385.1 L436.7,362.5 L442.5,391.0
		L448.2,383.4 L454.0,368.0 L459.7,360.5 L465.5,394.5 L471.2,365.8 L477.0,378.5 L482.7,380.5 L488.5,382.5
		L494.2,392.3 L500.0,372.7 L505.7,393.5 L511.5,419.8 L517.2,381.3 L523.0,382.4 L528.7,358.1 L534.5,388.6
		L540.2,383.9 L546.0,380.6 L551.7,383.7 L557.5,26.0 L563.2,378.3 L569.0,380.1 L574.7,359.3 L580.5,384.4
		L586.2,376.9 L592.0,372.8 L597.7,382.3 L603.5,366.9 L609.2,376.5 L615.0,368.0  '/></g>
	</g>
	<g id="gnuplot_plot_3" ><title>score p10=1282</title>
<g fill="none" color="black" stroke="currentColor" stroke-width="1.00" stroke-linecap="butt" stroke-linejoin="miter">
	<g transform="translate(571.0,467.9)" stroke="none" fill="black" font-family="Arial" font-size="12.00"  text-anchor="end">
		<text><tspan font-family="Arial" >score p10=1282</tspan></text>
	</g>
</g>
<g fill="none" color="black" stroke="currentColor" stroke-width="1.00" stroke-linecap="butt" stroke-linejoin="miter">
	<path stroke='rgb( 86, 180, 233)'  d='M579.3,464.0 L621.5,464.0  '/></g>
	</g>
	<g id="gnuplot_plot_4" ><title>score median=3500</title>
<g fill="none" color="black" stroke="currentColor" stroke-width="1.00" stroke-linecap="butt" stroke-linejoin="miter">
	<g transform="translate(571.0,485.9)" stroke="none" fill="black" font-family="Arial" font-size="12.00"  text-anchor="end">
		<text><tspan font-family="Arial" >score median=3500</tspan></text>
	</g>
</g>
<g fill="none" color="black" stroke="currentColor" stroke-width="1.00" stroke-linecap="butt" stroke-linejoin="miter">
	<path stroke='rgb(230, 159,   0)'  d='M579.3,482.0 L621.5,482.0  '/></g>
	</g>
<g fill="none" color="#FFFFFF" stroke="rgb(230, 159,   0)" stroke-width="2.00" stroke-linecap="butt" stroke-linejoin="miter">
</g>
<g fill="none" color="black" stroke="currentColor" stroke-width="2.00" stroke-linecap="butt" stroke-linejoin="miter">
</g>
<g fill="none" color="black" stroke="black" stroke-width="1.00" stroke-linecap="butt" stroke-linejoin="miter">
</g>
<g fill="none" color="black" stroke="currentColor" stroke-width="1.00" stroke-linecap="butt" stroke-linejoin="miter">
	<path stroke='black'  d='M45.6,18.1 L45.6,428.0 L615.0,428.0 L615.0,18.1 L45.6,18.1 Z  '/></g>
<g fill="none" color="black" stroke="currentColor" stroke-width="1.00" stroke-linecap="butt" stroke-linejoin="miter">
</g>
</g>
</svg>
